neru-light-classic/32x32/mimetypes/application-dxf.svg

<?xml version="1.0" encoding="UTF-8" standalone="no"?>
<svg
   xmlns:dc="http://purl.org/dc/elements/1.1/"
   xmlns:cc="http://creativecommons.org/ns#"
   xmlns:rdf="http://www.w3.org/1999/02/22-rdf-syntax-ns#"
   xmlns:svg="http://www.w3.org/2000/svg"
   xmlns="http://www.w3.org/2000/svg"
   xmlns:sodipodi="http://sodipodi.sourceforge.net/DTD/sodipodi-0.dtd"
   xmlns:inkscape="http://www.inkscape.org/namespaces/inkscape"
   width="32"
   height="32"
   version="1.1"
   id="svg16"
   sodipodi:docname="image-vnd.dxf.svg"
   inkscape:version="0.92.1 r">
  <metadata
     id="metadata22">
    <rdf:RDF>
      <cc:Work
         rdf:about="">
        <dc:format>image/svg+xml</dc:format>
        <dc:type
           rdf:resource="http://purl.org/dc/dcmitype/StillImage" />
      </cc:Work>
    </rdf:RDF>
  </metadata>
  <defs
     id="defs20" />
  <sodipodi:namedview
     pagecolor="#ffffff"
     bordercolor="#666666"
     borderopacity="1"
     objecttolerance="10"
     gridtolerance="10"
     guidetolerance="10"
     inkscape:pageopacity="0"
     inkscape:pageshadow="2"
     inkscape:window-width="1680"
     inkscape:window-height="978"
     id="namedview18"
     showgrid="false"
     inkscape:zoom="5.2149125"
     inkscape:cx="-84.526857"
     inkscape:cy="20.011955"
     inkscape:window-x="0"
     inkscape:window-y="0"
     inkscape:window-maximized="1"
     inkscape:current-layer="svg16" />
  <path
     style="opacity:1;fill:#539840;fill-opacity:1;fill-rule:evenodd;stroke:none;stroke-width:1.02788651;stroke-linecap:round;stroke-linejoin:bevel;stroke-miterlimit:4;stroke-dasharray:none;stroke-dashoffset:0;stroke-opacity:1"
     d="M 21.186981,1.9999999 H 7.536011 C 4.469605,1.9999999 2,4.4676662 2,7.534072 V 24.463989 C 2,27.530395 4.469605,30 7.536011,30 H 24.465928 C 27.532334,30 30,27.530395 30,24.463989 v -13.65097 z"
     id="path4508"
     inkscape:connector-curvature="0" />
  <path
     style="opacity:1;fill:#2a732b;fill-opacity:1;fill-rule:evenodd;stroke:none;stroke-width:1.02788651;stroke-linecap:round;stroke-linejoin:bevel;stroke-miterlimit:4;stroke-dasharray:none;stroke-dashoffset:0;stroke-opacity:1"
     d="M 30,10.813019 21.186981,2 v 3.2789473 c 0,3.0664056 2.467666,5.5340717 5.534072,5.5340717 z"
     id="rect4497-3"
     inkscape:connector-curvature="0" />
  <path
     style="fill:#c9e99d;stroke-width:1.12;fill-opacity:1"
     d="M 11.55125,1.9999998 V 16.559999 H 7.0712502 V 21.04 h -5.08375 v 2.24 h 5.08375 v 4.48 H 11.55125 V 30 h 2.24 v -2.24 h 4.48 V 23.28 H 30.0125 V 21.04 H 18.27125 v -4.480001 h -4.48 V 1.9999998 Z M 9.3112502,18.8 H 16.03125 v 6.72 H 9.3112502 Z m 2.2399998,2.24 v 2.24 h 2.24 v -2.24 z"
     id="path14-3"
     inkscape:connector-curvature="0"
     sodipodi:nodetypes="ccccccccccccccccccccccccccccccc" />
</svg>

<svg xmlns="http://www.w3.org/2000/svg" width="32" height="32"><path d="M21.187 2H7.536A5.523 5.523 0 0 0 2 7.534v16.93A5.525 5.525 0 0 0 7.536 30h16.93A5.523 5.523 0 0 0 30 24.464V10.813z" fill="#539840" fill-rule="evenodd"/><path d="M30 10.813L21.187 2v3.279a5.521 5.521 0 0 0 5.534 5.534z" fill="#2a732b" fill-rule="evenodd"/><path d="M11.551 2v14.56h-4.48v4.48H1.988v2.24H7.07v4.48h4.48V30h2.24v-2.24h4.48v-4.48h11.741v-2.24h-11.74v-4.48h-4.48V2zm-2.24 16.8h6.72v6.72h-6.72zm2.24 2.24v2.24h2.24v-2.24z" fill="#c9e99d"/></svg>
